X: 27255
T: Miss Sophia Campbell
R: jig
M: 6/8
K: Gmajor
Bc|:d3 g3|dBG Bcd|c3 =f3|cA=F ABc|
d3 b3|agf gfe|dcB AGF|G3 GBc:|
|:d3 dBG|dBG Bcd|c3 cA=F|cA=F ABc|
[1 d3 dBG|dBG gfg|dcB AFD|DG2 GBc:|
[2 d3 b3|agf gfe|dcB AGF|G3 G||

